X:5
T:Gigue (suite en La mineur)
R:Gigue
G:guitare
C:Robert de Vise
B:I. livre de guittarre ddi au Roy (1682)
O:France
Z:<anamnese@caramail.com> -- http://anamnese.fr.st
M:3/4
L:1/4
Q:1/4=155
K:C
%%staves (1 2)
V:1
%%MIDI program 24
%%MIDI channel 1
%%MIDI transpose -12
%%MIDI control 7 120 %volume
%%MIDI control 10 85 %pan
A/ B    |: c>c d | e3 | e>^fg | !trill!^f3 |
 ^f>^g a | !trill!^g3 | a3    | b>ab       | c'>b a    | =g2 g |
[e3/2g3/2] a/ e  | [A3d3f3]   | z3/2 g/ d  | e3/2 e/ d | !trill!c2 B | A3 | "/.../" z4
V:2
%%MIDI program 24
%%MIDI channel 2
%%MIDI transpose -12
%%MIDI control 7 120 %volume
%%MIDI control 10 45 %pan
z/ z |: [E3A3] | z>A B | c3 | [D3/2d3/2] c/ [Dd] |
 B3 | [B3/2e3/2] e/ [Dd] | cBA | [^G3d3e3] | [A3c3e3] | [B3d3] |
[G2c2] z | D3/2 [D/d/] c | !trill!B3 | [E2G2c2] D | E3 | F>E F |
